wp-content/plugins/sitepress-multilingual-cms/res/flags/al.svg

<svg width="32" height="32" viewBox="0 0 32 32" fill="none" xmlns="http://www.w3.org/2000/svg">
<path d="M30 5H2C0.895431 5 0 5.89544 0 7.00001V24.3336C0 25.4381 0.895431 26.3336 2 26.3336H30C31.1046 26.3336 32 25.4381 32 24.3336V7C32 5.89543 31.1046 5 30 5Z" fill="#FF4B55"/>
<path d="M22.0345 18.3565C21.7327 18.1669 21.5517 18.4685 21.5517 18.4685L20.6724 18.572L21.112 18.2013C21.431 18.2272 21.4741 18.1323 21.5603 18.003C21.6465 17.8737 22.0085 17.9341 22.0085 17.9341C21.9568 17.5375 21.4568 17.7617 21.4568 17.7617C21.0516 17.7185 20.9827 18.0462 20.9827 18.0462L20.3534 18.5289L18.9684 18.1185C19.112 17.9603 19.2249 17.8044 19.2413 17.7099C19.2689 17.5514 18.2184 17.2846 17.8965 16.9513C17.5747 16.6179 17.4597 16.0892 17.6092 15.9513C17.7586 15.8134 17.8851 16.2041 18.0459 16.526C18.2068 16.8479 18.5057 17.1007 18.7011 16.9398C18.8965 16.7789 18.4942 16.5375 18.3103 16.1927C18.1264 15.8479 18.4482 15.7214 18.5977 15.7559C18.7471 15.7904 18.8391 16.503 19.1954 16.8708C19.5517 17.2386 19.8735 17.1696 19.908 16.9397C19.9425 16.7099 19.32 16.4266 19.1935 16.2312C19.067 16.0358 19.0344 15.6524 19.2414 15.6409C19.4482 15.6294 20.2069 16.76 20.8506 17.1927C21.5517 17.6639 22.1149 17.1122 22.023 16.8823C21.9311 16.6524 21.5058 16.7444 21.0115 16.6179C20.5173 16.4914 20.0115 15.8247 19.8621 15.457C19.7127 15.0892 19.8362 15.0892 19.9225 15.1237C20.0087 15.1582 20.3363 15.6409 20.9656 16.0116C21.5949 16.3823 22.0345 16.0289 22.0863 15.9427C22.138 15.8565 22.3369 15.4695 21.6897 15.5605C20.9542 15.6639 20.5345 15.2272 20.2329 14.9944C19.9311 14.7617 19.8104 14.4427 19.9484 14.3134C20.0863 14.184 20.5403 14.7674 21.2299 14.9513C21.8634 15.1202 22.1207 14.8479 22.1034 14.5979C22.0862 14.3479 21.9396 14.4513 21.2241 14.3824C20.5086 14.3134 20.0086 13.641 19.9827 13.5979C19.9569 13.5547 19.9655 13.3134 20.3275 13.5461C20.6896 13.7789 21.3362 13.9168 21.7155 13.8995C22.0948 13.8823 22.1724 13.3737 21.9914 13.2875C21.8104 13.2013 21.7672 13.3306 21.3534 13.4168C20.9396 13.503 20.1638 13.0806 19.9741 12.8823C19.7844 12.684 19.9914 12.5547 20.0862 12.5719C20.181 12.5891 20.8017 12.9512 21.3534 12.934C21.9052 12.9167 22.1379 12.4081 22.1207 12.2529C22.1034 12.0977 21.9482 11.9684 21.7155 12.1236C21.4827 12.2788 21.1724 12.4598 20.6552 12.3736C20.1379 12.2874 19.8965 11.9425 19.9655 11.8133C20.0345 11.684 20.5345 11.9081 21.3276 11.8219C22.1207 11.7357 22.1552 11.0374 22.0776 10.8995C22 10.7616 21.8104 10.8047 21.5431 11.0547C21.2759 11.3047 20.7586 11.3564 20.3535 11.3564C19.9483 11.3564 19.9397 11.1582 20 11.0202C20.0604 10.8823 20.4914 10.9168 21.0949 10.7271C21.6983 10.5375 22.0431 10.0547 22.138 9.75299C22.2329 9.4513 22 9.21849 21.9052 9.21849C21.8104 9.21849 21.8707 9.08055 21.457 9.67537C21.0432 10.2702 19.957 10.5029 19.957 10.5029C19.8794 10.3564 19.7587 10.3047 19.7587 10.3047C19.026 10.4512 18.1421 11.0839 18.1421 11.0839C18.1421 11.0839 18.2979 11.5837 18.1032 11.9732C17.8526 12.4745 16.9933 12.1614 17.227 11.3695C17.4216 10.7102 18.1746 10.3116 18.8108 10.2401C19.4469 10.1687 19.4794 9.92855 19.4794 9.92855C19.4794 9.92855 18.8114 10.1461 18.7994 9.84749C18.9374 9.87549 19.1407 9.88768 19.4859 9.85711C19.9987 9.81174 20.2843 9.44818 20.0571 9.3703C19.8299 9.29243 19.9273 9.52611 19.5378 9.70786C19.26 9.83749 18.9684 9.77911 18.8225 9.7348C18.9573 9.44043 19.5248 9.59099 19.5248 9.59099C19.5313 9.07818 18.8509 9.26162 18.8509 9.26162C18.5521 8.61787 16.8049 9.36505 16.8049 9.36505L17.2187 9.69837C16.2072 10.2616 16.0002 11.3305 16.0002 11.3305C16.0002 11.3305 15.7934 10.2616 14.7818 9.6983L15.1956 9.36499C15.1956 9.36499 13.4484 8.6178 13.1496 9.26155C13.1496 9.26155 12.4691 9.07818 12.4757 9.59093C12.4757 9.59093 13.0432 9.44037 13.1781 9.73474C13.0321 9.77911 12.7406 9.83743 12.4628 9.7078C12.0733 9.52599 12.1707 9.29243 11.9434 9.37024C11.7163 9.44812 12.0019 9.81161 12.5147 9.85705C12.8599 9.88761 13.0632 9.87549 13.2011 9.84743C13.1892 10.146 12.5212 9.92849 12.5212 9.92849C12.5212 9.92849 12.5537 10.1686 13.1897 10.2401C13.8259 10.3115 14.579 10.7101 14.7736 11.3695C15.0072 12.1614 14.148 12.4744 13.8973 11.9731C13.7026 11.5837 13.8584 11.0839 13.8584 11.0839C13.8584 11.0839 12.9746 10.4512 12.2418 10.3046C12.2418 10.3046 12.1211 10.3564 12.0436 10.5029C12.0436 10.5029 10.9574 10.2701 10.5436 9.6753C10.1298 9.08049 10.1901 9.21843 10.0953 9.21843C10.0005 9.21843 9.76776 9.45118 9.86257 9.75293C9.95738 10.0547 10.3022 10.5374 10.9057 10.7271C11.5092 10.9167 11.9402 10.8822 12.0005 11.0202C12.0609 11.1581 12.0523 11.3564 11.6471 11.3564C11.2419 11.3564 10.7246 11.3046 10.4574 11.0546C10.1902 10.8046 10.0006 10.7615 9.92294 10.8994C9.84538 11.0374 9.87982 11.7356 10.6729 11.8219C11.4661 11.908 11.9661 11.6839 12.035 11.8132C12.1039 11.9425 11.8626 12.2874 11.3454 12.3735C10.8281 12.4597 10.5178 12.2787 10.2851 12.1235C10.0523 11.9684 9.89713 12.0977 9.87988 12.2529C9.86263 12.408 10.0954 12.9167 10.6471 12.9339C11.1989 12.9512 11.8196 12.5891 11.9144 12.5719C12.0092 12.5546 12.2161 12.6839 12.0264 12.8822C11.8368 13.0804 11.0609 13.5029 10.6471 13.4167C10.2333 13.3305 10.1903 13.2012 10.0092 13.2874C9.82813 13.3735 9.90576 13.8822 10.2851 13.8994C10.6644 13.9167 11.3109 13.7787 11.673 13.546C12.0351 13.3132 12.0437 13.5546 12.0178 13.5977C11.9919 13.6409 11.4919 14.3132 10.7764 14.3822C10.0609 14.4512 9.91438 14.3477 9.89713 14.5977C9.87988 14.8477 10.1372 15.1201 10.7707 14.9512C11.4603 14.7672 11.9144 14.1839 12.0523 14.3132C12.1903 14.4425 12.0696 14.7615 11.7678 14.9943C11.4661 15.227 11.0465 15.6638 10.3109 15.5604C9.66382 15.4694 9.86269 15.8564 9.91438 15.9425C9.96607 16.0287 10.4058 16.3822 11.0351 16.0115C11.6644 15.6408 11.9919 15.158 12.0782 15.1235C12.1644 15.089 12.288 15.089 12.1386 15.4569C11.9891 15.8247 11.4834 16.4914 10.9891 16.6177C10.4949 16.7442 10.0696 16.6522 9.97763 16.8822C9.88569 17.112 10.4489 17.6637 11.1501 17.1925C11.7938 16.7599 12.5524 15.6292 12.7593 15.6407C12.9662 15.6522 12.9336 16.0356 12.8072 16.231C12.6807 16.4264 12.0581 16.7097 12.0926 16.9395C12.1271 17.1694 12.4489 17.2384 12.8052 16.8706C13.1616 16.5028 13.2535 15.7901 13.403 15.7557C13.5524 15.7212 13.8742 15.8477 13.6903 16.1925C13.5064 16.5373 13.1041 16.7787 13.2996 16.9396C13.4949 17.1005 13.7938 16.8477 13.9547 16.5258C14.1156 16.2039 14.2421 15.8132 14.3915 15.9511C14.5409 16.089 14.426 16.6177 14.1041 16.9511C13.7823 17.2844 12.7317 17.5512 12.7593 17.7097C12.7757 17.8042 12.8885 17.96 13.0322 18.1184L11.6473 18.5287L11.0179 18.0459C11.0179 18.0459 10.949 17.7184 10.5438 17.7614C10.5438 17.7614 10.0438 17.5373 9.99207 17.9339C9.99207 17.9339 10.3541 17.8735 10.4403 18.0028C10.5265 18.1321 10.5696 18.2269 10.8886 18.201L11.3281 18.5718L10.4488 18.4684C10.4488 18.4684 10.2678 18.1666 9.96607 18.3563C9.96607 18.3563 9.58676 18.2356 9.49194 18.5977C9.49194 18.5977 9.81951 18.5373 9.90576 18.5804C9.90576 18.5804 10.0351 18.8735 10.4489 18.7011L11.3196 18.7442L10.8282 18.9856C10.8282 18.9856 10.2075 18.7873 10.2334 19.3045C10.2334 19.3045 10.0523 19.5114 10.2161 19.7183C10.2161 19.7183 10.2506 19.4942 10.4144 19.3994C10.4144 19.3994 10.7333 19.5287 10.9403 19.1494L11.5696 18.7701L12.1903 19.0718C12.1903 19.0718 12.173 19.408 12.6299 19.2701C12.6299 19.2701 12.7851 19.3735 12.8281 19.5115C12.8281 19.5115 13.0264 19.296 12.7074 19.046C12.7074 19.046 12.6299 18.7528 12.2506 18.8649L11.8971 18.6838L13.2049 18.2958C13.4314 18.5114 13.6757 18.6882 13.7612 18.6586C13.9299 18.6002 14.0598 18.425 14.1766 18.1783C14.2934 17.9316 14.8192 17.0749 15.0788 17.0814C15.3384 17.0879 15.4553 17.2955 15.3904 17.6656C15.3255 18.0355 14.8195 18.7443 14.4919 18.8908C14.1643 19.0374 14.1126 19.1063 13.8108 19.0805C13.5091 19.0546 13.4056 19.1839 13.4746 19.3563C13.5436 19.5288 13.883 19.6384 14.216 19.5115C14.5781 19.3736 14.716 19.184 14.8539 19.296C14.9919 19.4081 14.7074 19.8133 14.3194 19.934C13.9315 20.0547 13.6384 19.9771 13.6987 20.2185C13.7591 20.4598 14.1729 20.4771 14.4401 20.3219C14.7074 20.1667 15.0091 19.7357 15.0867 19.8737C15.1642 20.0116 15.1126 20.365 14.8539 20.5547C14.5953 20.7443 14.3011 20.6328 14.2419 20.8047C14.1557 21.0547 14.4574 21.2185 14.6901 21.1237C14.9229 21.0288 15.1901 20.7357 15.3108 20.4771C15.4315 20.2185 15.6556 20.4426 15.5867 20.684C15.5177 20.9253 15.5752 21.1236 15.0809 21.5029L16.0004 22.9167L16.92 21.5028C16.4257 21.1235 16.4832 20.9253 16.4142 20.6839C16.3452 20.4425 16.5694 20.2184 16.6901 20.477C16.8107 20.7357 17.078 21.0288 17.3107 21.1236C17.5435 21.2184 17.8452 21.0547 17.759 20.8047C17.6997 20.6327 17.4056 20.7443 17.1469 20.5547C16.8883 20.365 16.8366 20.0115 16.9142 19.8736C16.9917 19.7357 17.2935 20.1667 17.5607 20.3218C17.828 20.477 18.2418 20.4598 18.3021 20.2184C18.3624 19.977 18.0694 20.0546 17.6814 19.9339C17.2935 19.8132 17.009 19.408 17.1469 19.296C17.2849 19.1839 17.4228 19.3735 17.7849 19.5115C18.1179 19.6383 18.4573 19.5287 18.5262 19.3563C18.5952 19.1838 18.4917 19.0545 18.1901 19.0804C17.8883 19.1063 17.8366 19.0373 17.509 18.8908C17.1814 18.7443 16.6754 18.0355 16.6105 17.6655C16.5456 17.2955 16.6624 17.0878 16.9221 17.0814C17.1817 17.0748 17.7074 17.9315 17.8243 18.1782C17.9411 18.4249 18.0709 18.6002 18.2397 18.6586C18.3252 18.6882 18.5696 18.5114 18.7959 18.2958L20.1037 18.6838L19.7503 18.8649C19.371 18.7528 19.2934 19.046 19.2934 19.046C18.9745 19.296 19.1727 19.5115 19.1727 19.5115C19.2159 19.3735 19.371 19.2701 19.371 19.2701C19.8279 19.408 19.8106 19.0718 19.8106 19.0718L20.4313 18.7701L21.0606 19.1494C21.2675 19.5287 21.5865 19.3994 21.5865 19.3994C21.7503 19.4942 21.7847 19.7183 21.7847 19.7183C21.9485 19.5115 21.7675 19.3045 21.7675 19.3045C21.7934 18.7873 21.1727 18.9857 21.1727 18.9857L20.681 18.7444L21.5517 18.7013C21.9655 18.8737 22.0949 18.5806 22.0949 18.5806C22.181 18.5375 22.5087 18.5978 22.5087 18.5978C22.4138 18.2358 22.0345 18.3565 22.0345 18.3565Z" fill="#464655"/>
</svg>

<svg xmlns="http://www.w3.org/2000/svg" width="32" height="32" fill="none"><path fill="#FF4B55" d="M30 5H2a2 2 0 0 0-2 2v17.334a2 2 0 0 0 2 2h28a2 2 0 0 0 2-2V7a2 2 0 0 0-2-2Z"/><path fill="#464655" d="M22.035 18.357c-.302-.19-.483.111-.483.111l-.88.104.44-.37c.319.025.362-.07.448-.199.087-.13.449-.069.449-.069-.052-.396-.552-.172-.552-.172-.405-.044-.474.284-.474.284l-.63.483-1.385-.41c.144-.159.257-.315.273-.41.028-.158-1.023-.424-1.345-.758-.321-.333-.436-.862-.287-1 .15-.138.276.253.437.575.16.322.46.575.655.414.195-.161-.207-.402-.39-.747-.185-.345.137-.472.287-.437.15.034.241.747.597 1.115.357.368.678.299.713.069.034-.23-.588-.513-.715-.709-.126-.195-.159-.579.048-.59.207-.012.966 1.119 1.61 1.552.7.47 1.264-.08 1.172-.31-.092-.23-.517-.139-1.011-.265-.495-.127-1-.793-1.15-1.161-.15-.368-.026-.368.06-.333.087.034.414.517 1.044.888.629.37 1.069.017 1.12-.07.052-.085.25-.473-.396-.382-.736.104-1.155-.333-1.457-.566-.302-.232-.423-.551-.285-.68.138-.13.592.453 1.282.637.633.17.89-.103.873-.353-.017-.25-.163-.147-.879-.216-.715-.069-1.215-.741-1.241-.784-.026-.043-.018-.285.345-.052.362.233 1.008.37 1.387.354.38-.018.457-.526.276-.613-.18-.086-.224.044-.638.13-.413.086-1.19-.336-1.379-.535-.19-.198.017-.327.112-.31.095.017.716.38 1.267.362.552-.017.785-.526.768-.681-.018-.155-.173-.285-.405-.13-.233.156-.544.337-1.06.25-.518-.086-.76-.43-.69-.56.069-.129.569.095 1.362.009.793-.086.827-.785.75-.922-.078-.138-.268-.095-.535.155s-.784.301-1.19.301c-.405 0-.413-.198-.353-.336s.491-.103 1.095-.293c.603-.19.948-.672 1.043-.974.095-.302-.138-.535-.233-.535s-.034-.137-.448.457c-.414.595-1.5.828-1.5.828a.454.454 0 0 0-.198-.198c-.733.146-1.617.779-1.617.779s.156.5-.039.89c-.25.5-1.11.187-.876-.604.195-.66.948-1.058 1.584-1.13.636-.071.668-.311.668-.311s-.668.217-.68-.082c.138.028.342.04.687.01.513-.045.798-.409.571-.487-.227-.078-.13.156-.52.338-.277.13-.569.071-.714.027.134-.295.702-.144.702-.144.006-.513-.674-.33-.674-.33-.299-.643-2.046.104-2.046.104l.414.333C16.207 10.262 16 11.331 16 11.331s-.207-1.07-1.218-1.633l.414-.333s-1.748-.747-2.046-.103c0 0-.68-.184-.674.329 0 0 .567-.15.702.144-.146.044-.437.102-.715-.027-.39-.182-.292-.416-.52-.338-.227.078.059.442.572.487.345.03.548.018.686-.01-.012.299-.68.081-.68.081s.033.24.669.312c.636.072 1.389.47 1.584 1.13.233.791-.626 1.104-.877.603-.194-.39-.039-.89-.039-.89s-.883-.632-1.616-.778c0 0-.12.051-.198.198 0 0-1.087-.233-1.5-.828-.414-.595-.354-.457-.449-.457-.095 0-.327.233-.232.535.094.302.44.784 1.043.974.603.19 1.034.155 1.095.293.06.138.051.336-.354.336-.405 0-.922-.051-1.19-.301-.267-.25-.456-.293-.534-.156-.078.138-.043.837.75.923.793.086 1.293-.138 1.362-.009.069.13-.172.474-.69.56-.517.087-.827-.094-1.06-.25-.233-.155-.388-.025-.405.13-.017.155.215.664.767.68.552.018 1.173-.344 1.267-.361.095-.017.302.112.112.31s-.965.62-1.379.535c-.414-.086-.457-.216-.638-.13-.18.086-.103.595.276.612.38.018 1.026-.12 1.388-.353.362-.233.37.009.345.052-.026.043-.526.715-1.242.784-.715.07-.862-.034-.879.216-.017.25.24.522.874.353.69-.184 1.143-.767 1.281-.638.138.13.018.448-.284.681-.302.233-.722.67-1.457.566-.647-.09-.448.296-.397.383.052.086.492.44 1.121.069.63-.371.957-.854 1.043-.889.086-.034.21-.034.06.334-.149.368-.655 1.034-1.149 1.16-.494.127-.92.035-1.011.265-.092.23.47.782 1.172.31.644-.432 1.402-1.563 1.61-1.551.206.011.174.395.047.59-.126.195-.749.479-.714.708.034.23.356.3.712-.068.357-.368.449-1.08.598-1.115.15-.035.471.092.287.436-.184.345-.586.587-.39.748.195.16.494-.092.655-.414.16-.322.287-.713.437-.575.149.138.034.667-.288 1-.322.333-1.372.6-1.345.759.017.094.13.25.273.408l-1.385.41-.63-.482s-.068-.328-.473-.285c0 0-.5-.224-.552.173 0 0 .362-.06.448.069.087.13.13.224.449.198l.44.37-.88-.103s-.181-.301-.483-.112c0 0-.38-.12-.474.242 0 0 .328-.06.414-.018 0 0 .13.294.543.121l.87.043-.49.242s-.622-.199-.596.319c0 0-.18.206-.017.413 0 0 .035-.224.198-.319 0 0 .32.13.526-.25l.63-.379.62.302s-.017.336.44.198c0 0 .155.104.198.242 0 0 .198-.216-.12-.466 0 0-.078-.293-.457-.181l-.354-.181 1.308-.388c.226.215.47.392.556.363.169-.059.299-.234.416-.48.116-.247.642-1.104.902-1.098.26.007.376.215.311.585s-.57 1.078-.898 1.225c-.328.146-.38.215-.681.19-.302-.026-.405.103-.336.275.069.173.408.282.741.155.362-.137.5-.327.638-.215.138.112-.147.517-.535.638-.388.12-.68.043-.62.284.06.242.474.26.741.104.267-.155.57-.586.647-.448.077.138.026.491-.233.68-.259.19-.553.079-.612.25-.086.25.215.415.448.32.233-.095.5-.388.62-.647.121-.259.346-.034.277.207-.07.241-.012.44-.506.819l.92 1.414.919-1.414c-.494-.38-.437-.578-.506-.82-.069-.24.155-.465.276-.206.12.259.388.552.62.647.234.094.535-.07.449-.32-.06-.171-.353-.06-.612-.25-.259-.189-.31-.542-.233-.68.078-.138.38.293.647.448.267.155.68.138.741-.104.06-.241-.233-.163-.62-.284-.388-.12-.673-.526-.535-.638.138-.112.276.078.638.216.333.126.672.017.741-.156.07-.172-.034-.302-.336-.276-.302.026-.353-.043-.681-.19-.328-.146-.834-.855-.899-1.224-.064-.37.052-.578.312-.585.26-.006.785.85.902 1.097.117.247.247.422.416.48.085.03.33-.147.556-.362l1.308.388-.354.18c-.379-.111-.457.182-.457.182-.319.25-.12.466-.12.466.043-.139.198-.242.198-.242.457.138.44-.198.44-.198l.62-.302.63.38c.206.379.526.25.526.25.163.094.198.318.198.318.163-.206-.018-.413-.018-.413.026-.518-.594-.32-.594-.32l-.492-.24.87-.044c.415.173.544-.12.544-.12.086-.043.414.017.414.017-.095-.362-.474-.241-.474-.241Z"/></svg>
